glitch-avatars-svg/base_avatar/Avatar.fla/placeholder symbols 3/Avatar_backLegUpperRight3.svg

<?xml version="1.0" encoding="UTF-8" standalone="no"?>
<!-- Generator: flash2svg, http://dissentgraphics.com/tools/flash2svg -->

<svg
   xmlns:dc="http://purl.org/dc/elements/1.1/"
   xmlns:cc="http://creativecommons.org/ns#"
   xmlns:rdf="http://www.w3.org/1999/02/22-rdf-syntax-ns#"
   xmlns:svg="http://www.w3.org/2000/svg"
   xmlns="http://www.w3.org/2000/svg"
   xmlns:sodipodi="http://sodipodi.sourceforge.net/DTD/sodipodi-0.dtd"
   xmlns:inkscape="http://www.inkscape.org/namespaces/inkscape"
   id="Avatar"
   image-rendering="auto"
   version="1.1"
   x="0px"
   y="0px"
   width="14.99052"
   height="13.145982"
   viewBox="0 0 14.99052 13.145982"
   inkscape:version="0.48.4 r9939"
   sodipodi:docname="Avatar_backLegUpperRight3.svg">
  <metadata
     id="metadata3248">
    <rdf:RDF>
      <cc:Work
         rdf:about="">
        <dc:format>image/svg+xml</dc:format>
        <dc:type
           rdf:resource="http://purl.org/dc/dcmitype/StillImage" />
      </cc:Work>
    </rdf:RDF>
  </metadata>
  <sodipodi:namedview
     pagecolor="#ffffff"
     bordercolor="#666666"
     borderopacity="1"
     objecttolerance="10"
     gridtolerance="10"
     guidetolerance="10"
     inkscape:pageopacity="0"
     inkscape:pageshadow="2"
     inkscape:window-width="640"
     inkscape:window-height="480"
     id="namedview3246"
     showgrid="false"
     fit-margin-top="0"
     fit-margin-left="0"
     fit-margin-right="0"
     fit-margin-bottom="0"
     inkscape:zoom="1.8730159"
     inkscape:cx="36.88985"
     inkscape:cy="-52.453821"
     inkscape:window-x="0"
     inkscape:window-y="0"
     inkscape:window-maximized="0"
     inkscape:current-layer="Avatar" />
  <defs
     id="defs3230">
    <radialGradient
       gradientUnits="userSpaceOnUse"
       color-interpolation="sRGB"
       r="13.942734"
       cx="1.8"
       cy="0.2"
       fx="1.8"
       fy="0.2"
       gradientTransform="matrix(0.61135864,0.79148865,-0.77462769,0.73469543,0.85,-1.349)"
       id="radialGradient">
      <stop
         stop-color="#FFF"
         stop-opacity="1"
         offset="0"
         id="stop3233" />
      <stop
         stop-color="#FFF"
         stop-opacity="0.40784313725490196"
         offset="1"
         id="stop3235" />
    </radialGradient>
    <radialGradient
       gradientUnits="userSpaceOnUse"
       color-interpolation="sRGB"
       r="13.944"
       cx="2.6500001"
       cy="-1.099"
       fx="2.6500001"
       fy="-1.099"
       gradientTransform="matrix(0.611,0.791,-0.775,0.735,-0.599,-0.999)"
       id="radialGradient1">
      <stop
         stop-color="#FFF"
         stop-opacity="1"
         offset="0"
         id="stop3238" />
      <stop
         stop-color="#FFF"
         stop-opacity="0.40784313725490196"
         offset="1"
         id="stop3240" />
    </radialGradient>
  </defs>
  <g
     id="backLegUpperRight4"
     overflow="visible"
     style="overflow:visible"
     transform="translate(2.8898502,2.5998024)">
    <g
       id="backLegUpperRight3_0">
      <g
         id="element">
        <path
           id="path"
           d="m 2.65,-2.5 0.05,-0.05 -0.1,0 C 1.45,-2.7 0.4,-2.5 -0.5,-2.1 l -0.6,0.45 -0.35,0.05 0,0.2 -0.3,0.55 -0.1,0 0,0.1 c -0.9,1.4 -1.35,3.55 -0.8,5.15 l -0.05,0.05 0.05,0.1 c 0.3,0.55 0.6,1 1.1,1.4 1.8,1.55 3.95,2 5.4,2.65 l 1.8,1 0.05,0.05 0.05,0 c 1.45,0.8 3.3,1.6 4.5,-0.15 l 1.3,-1.85 C 12.25,6.6 12.3,5.95 11.6,4.4 11.2,3.7 10.8,3.1 10.4,2.5 l 0,-0.1 -0.05,0 C 8.95,0.35 7.1,-1.05 5.4,-1.8 l -0.1,-0.05 -0.05,0 C 4.45,-2.2 3.55,-2.5 2.65,-2.5 z m -2.6,2 c -0.6,-0.1 -1.2,-0.25 -1.5,-0.35 l 0.5,-0.55 c 0.35,-0.15 1.1,-0.3 2,-0.2 -0.35,0.35 -0.65,0.65 -1,1.1 z M 1.4,-1.8 c -0.75,-0.1 -1.35,-0.1 -1.85,0 0.7,-0.35 1.6,-0.5 2.5,-0.45 L 1.4,-1.8 z m 0.05,0.3 1.35,0.35 1.1,0.55 C 3.55,-0.3 3.2,0.2 2.85,0.7 l 0,-0.05 C 2,0.25 1.15,-0.15 0.35,-0.35 0.7,-0.9 1.1,-1.3 1.45,-1.5 z m 2.7,0.65 -1.2,-0.55 C 2.5,-1.65 2.15,-1.7 1.8,-1.8 L 2.65,-2.25 C 3.4,-2.2 4.2,-2 5,-1.65 l -0.85,0.8 z m 1.1,-0.7 c 0.95,0.4 1.8,0.9 2.65,1.65 L 7.05,0.75 C 6.25,0.1 5.3,-0.35 4.45,-0.75 l 0.8,-0.8 z m 6.55,7.4 c 0,0.2 0,0.4 0,0.65 -0.3,0.45 -0.8,1 -1.15,1.45 l 0,-0.15 C 10.8,7.5 10.85,6.85 10.75,6.1 11.25,5.8 11.6,5.75 11.8,5.85 z M 10.7,5.75 C 10.55,4.9 10.25,3.95 9.65,3.05 l 0.6,-0.3 c 0.35,0.6 0.75,1.15 1,1.75 0.25,0.45 0.35,0.75 0.45,1.05 -0.15,-0.05 -0.55,0 -1,0.2 z m -0.4,3.1 -0.05,-0.2 1,-1.05 c -0.15,0.2 -0.3,0.45 -0.5,0.75 L 10.3,9 10.3,8.85 z M 10.15,8.45 C 10.05,8.1 9.95,7.45 9.7,6.9 9.95,6.55 10.3,6.35 10.45,6.2 10.55,6.95 10.5,7.5 10.4,7.75 l -0.25,0.7 z M 10.2,9.1 10,9.35 C 9.6,10 9.05,10.25 8.4,10.2 8.35,10.15 8.35,10 8.35,9.8 8.95,9.9 9.55,9.75 10.15,9.05 L 10.2,9.1 z M 9.5,2.9 9.45,2.8 C 8.85,2.05 8.1,1.5 7.3,0.9 L 8.15,0.3 C 8.8,0.95 9.45,1.65 10.1,2.5 L 9.5,2.9 z M 9.25,3.05 C 8.9,3.25 8.4,3.65 7.95,4.2 7.35,3.6 6.65,3.1 5.85,2.45 L 7.1,1.1 c 0.85,0.65 1.55,1.2 2.1,1.85 l 0.05,0.1 z M 5.65,2.35 3.15,0.8 C 3.45,0.25 3.85,-0.15 4.2,-0.5 5.25,-0.05 6.1,0.45 6.85,0.95 6.5,1.3 6.05,1.8 5.65,2.35 z M 9.4,3.2 C 10,4.1 10.3,5.1 10.45,5.9 10.2,6.05 9.85,6.3 9.6,6.55 9.35,6.1 9.1,5.5 8.75,5 L 8.2,4.35 C 8.6,3.8 9.05,3.55 9.4,3.2 z m -0.9,2 c 0.35,0.5 0.65,1.1 0.85,1.65 l -0.3,0.3 C 8.9,7.45 8.75,7.7 8.6,7.9 L 6.65,6.85 7.1,5.9 C 7.4,5.4 7.7,5 8,4.6 L 8.5,5.2 z M 6.9,5.85 6.4,6.75 4.25,5.6 C 4.4,5.15 4.55,4.65 4.95,4.05 L 5.7,2.75 c 0.75,0.5 1.45,1.1 2.05,1.7 C 7.5,4.8 7.15,5.25 6.9,5.85 z M 2.7,0.95 1.95,2.45 c -0.2,0.7 -0.4,1.4 -0.5,2 C 0.6,4.15 -0.3,3.75 -1,3.3 -0.95,2.5 -0.8,1.6 -0.3,0.65 -0.15,0.35 0,0.15 0.15,-0.1 1,0.1 1.85,0.5 2.7,0.9 l 0,0.05 z M 4,5.5 1.7,4.6 C 1.8,3.95 1.9,3.25 2.2,2.5 L 2.95,1.05 5.45,2.65 4.7,3.9 C 4.4,4.45 4.15,4.95 4,5.5 z M 3.85,5.75 C 3.75,6.25 3.7,6.75 3.7,7.1 3.1,6.9 2.4,6.55 1.7,6.4 1.65,5.95 1.65,5.45 1.7,4.9 L 3.85,5.75 z M 3.8,8.25 1.85,7.55 1.75,6.7 c 0.7,0.2 1.35,0.5 1.9,0.8 L 3.8,8.25 z M 1.55,7.45 C 0.9,7.1 0.2,6.85 -0.4,6.4 l 0,-0.05 C -0.55,6.3 -0.7,6 -0.8,5.7 -0.15,6.05 0.65,6.45 1.4,6.65 l 0.15,0.8 z m 2.4,0.2 C 4.6,7.9 5.1,8.25 5.6,8.55 L 5.75,8.65 5.65,9.3 4.05,8.35 3.95,7.65 z M 9.85,8.9 C 9.4,9.45 8.9,9.55 8.35,9.5 8.35,9.15 8.5,8.75 8.75,8.3 l 1.1,0.6 z M 9.55,7.15 9.95,8.6 8.85,8.05 9.3,7.4 9.55,7.15 z M 5.8,8.35 5.75,8.3 C 5.25,8 4.65,7.6 3.95,7.25 3.95,6.9 4.05,6.4 4.15,5.85 l 2.2,1.2 C 6.1,7.5 5.9,7.95 5.8,8.35 z m 0.3,0.1 C 6.15,8.15 6.35,7.7 6.55,7.2 l 1.9,1 C 8.3,8.7 8.15,9.15 8.05,9.45 7.7,9.35 7.25,9.1 6.9,8.95 L 6.1,8.45 z m 0.65,0.8 C 7.1,9.4 7.6,9.6 8.1,9.8 l 0,0.45 C 7.45,10.2 6.7,9.9 5.95,9.35 l 0,-0.6 0.8,0.5 z M 1.4,6.35 C 0.55,6.1 -0.25,5.65 -0.9,5.3 -1,4.85 -1.1,4.25 -1.05,3.65 c 0.8,0.45 1.6,0.8 2.45,1.1 -0.1,0.6 0,1.1 0,1.6 z m -1.5,-6.6 C -0.25,0 -0.35,0.2 -0.6,0.6 -0.95,1.45 -1.2,2.4 -1.3,3.15 -1.75,2.9 -2.15,2.6 -2.5,2.25 L -2.65,2.4 c 0.1,-1.1 0.45,-2.15 0.95,-2.95 0.3,0 0.9,0.15 1.6,0.3 z M -1.2,5.1 -2.35,4.35 C -2.6,3.8 -2.7,3.2 -2.65,2.55 c 0.4,0.35 0.85,0.7 1.3,0.95 -0.05,0.6 0,1.15 0.15,1.6 z M -2.1,4.9 -1.15,5.45 -0.9,6.1 -1.35,5.75 C -1.65,5.5 -1.9,5.3 -2.1,4.9 z"
           inkscape:connector-curvature="0"
           style="fill:url(#radialGradient1)" />
      </g>
    </g>
  </g>
</svg>

<?xml version="1.0" encoding="utf-8"?>
<!-- Generator: flash2svg, http://dissentgraphics.com/tools/flash2svg -->
<svg xmlns:xlink="http://www.w3.org/1999/xlink" id="Avatar" image-rendering="auto" baseProfile="basic" version="1.1" x="0px" y="0px" width="68" height="126" xmlns="http://www.w3.org/2000/svg" viewBox="0 0 68 126">
  <defs>
    <radialGradient gradientUnits="userSpaceOnUse" color-interpolation="sRGB" r="13.942733326946266" cx="1.8" cy="0.2" fx="1.8000000000000007" fy="0.2" gradientTransform="matrix(0.611358642578125 0.7914886474609375 -0.774627685546875 0.7346954345703125 0.85 -1.349)" id="radialGradient">
      <stop stop-color="#FFF" stop-opacity="1" offset="0"/>
      <stop stop-color="#FFF" stop-opacity="0.40784313725490196" offset="1"/>
    </radialGradient>
    <radialGradient gradientUnits="userSpaceOnUse" color-interpolation="sRGB" r="13.944" cx="2.65" cy="-1.099" fx="2.65" fy="-1.099" gradientTransform="matrix(0.611 0.791 -0.775 0.735 -0.599 -0.999)" id="radialGradient1">
      <stop stop-color="#FFF" stop-opacity="1" offset="0"/>
      <stop stop-color="#FFF" stop-opacity="0.40784313725490196" offset="1"/>
    </radialGradient>
  </defs>
  <g id="backLegUpperRight4" overflow="visible">
    <g id="backLegUpperRight3_0">
      <g id="element">
        <path id="path" fill="url(#radialGradient1)" d="M2.65,-2.5 L2.7,-2.55 2.6,-2.55 C1.45,-2.7 0.4,-2.5 -0.5,-2.1 L-1.1,-1.65 -1.45,-1.6 -1.45,-1.4 -1.75,-0.85 -1.85,-0.85 -1.85,-0.75 C-2.75,0.65 -3.2,2.8 -2.65,4.4 L-2.7,4.45 -2.65,4.55 C-2.35,5.1 -2.05,5.55 -1.55,5.95 0.25,7.5 2.4,7.95 3.85,8.6 L5.65,9.6 5.7,9.65 5.75,9.65 C7.2,10.45 9.05,11.25 10.25,9.5 L11.55,7.65 C12.25,6.6 12.3,5.95 11.6,4.4 11.2,3.7 10.8,3.1 10.4,2.5 L10.4,2.4 10.35,2.4 C8.95,0.35 7.1,-1.05 5.4,-1.8 L5.3,-1.85 5.25,-1.85 C4.45,-2.2 3.55,-2.5 2.65,-2.5z M0.05,-0.5 C-0.55,-0.6 -1.15,-0.75 -1.45,-0.85 L-0.95,-1.4 C-0.6,-1.55 0.15,-1.7 1.05,-1.6 0.7,-1.25 0.4,-0.95 0.05,-0.5z M1.4,-1.8 C0.65,-1.9 0.05,-1.9 -0.45,-1.8 0.25,-2.15 1.15,-2.3 2.05,-2.25 L1.4,-1.8z M1.45,-1.5 L2.8,-1.15 3.9,-0.6 C3.55,-0.3 3.2,0.2 2.85,0.7 L2.85,0.65 C2,0.25 1.15,-0.15 0.35,-0.35 0.7,-0.9 1.1,-1.3 1.45,-1.5z M4.15,-0.85 L2.95,-1.4 C2.5,-1.65 2.15,-1.7 1.8,-1.8 L2.65,-2.25 C3.4,-2.2 4.2,-2 5,-1.65 L4.15,-0.85z M5.25,-1.55 C6.2,-1.15 7.05,-0.65 7.9,0.1 L7.05,0.75 C6.25,0.1 5.3,-0.35 4.45,-0.75 L5.25,-1.55z M11.8,5.85 C11.8,6.05 11.8,6.25 11.8,6.5 11.5,6.95 11,7.5 10.65,7.95 L10.65,7.8 C10.8,7.5 10.85,6.85 10.75,6.1 11.25,5.8 11.6,5.75 11.8,5.85z M10.7,5.75 C10.55,4.9 10.25,3.95 9.65,3.05 L10.25,2.75 C10.6,3.35 11,3.9 11.25,4.5 11.5,4.95 11.6,5.25 11.7,5.55 11.55,5.5 11.15,5.55 10.7,5.75z M10.3,8.85 L10.25,8.65 11.25,7.6 C11.1,7.8 10.95,8.05 10.75,8.35 L10.3,9 10.3,8.85z M10.15,8.45 C10.05,8.1 9.95,7.45 9.7,6.9 9.95,6.55 10.3,6.35 10.45,6.2 10.55,6.95 10.5,7.5 10.4,7.75 L10.15,8.45z M10.2,9.1 L10,9.35 C9.6,10 9.05,10.25 8.4,10.2 8.35,10.15 8.35,10 8.35,9.8 8.95,9.9 9.55,9.75 10.15,9.05 L10.2,9.1z M9.5,2.9 L9.45,2.8 C8.85,2.05 8.1,1.5 7.3,0.9 L8.15,0.3 C8.8,0.95 9.45,1.65 10.1,2.5 L9.5,2.9z M9.25,3.05 C8.9,3.25 8.4,3.65 7.95,4.2 7.35,3.6 6.65,3.1 5.85,2.45 L7.1,1.1 C7.95,1.75 8.65,2.3 9.2,2.95 L9.25,3.05z M5.65,2.35 L3.15,0.8 C3.45,0.25 3.85,-0.15 4.2,-0.5 5.25,-0.05 6.1,0.45 6.85,0.95 6.5,1.3 6.05,1.8 5.65,2.35z M9.4,3.2 C10,4.1 10.3,5.1 10.45,5.9 10.2,6.05 9.85,6.3 9.6,6.55 9.35,6.1 9.1,5.5 8.75,5 L8.2,4.35 C8.6,3.8 9.05,3.55 9.4,3.2z M8.5,5.2 C8.85,5.7 9.15,6.3 9.35,6.85 L9.05,7.15 C8.9,7.45 8.75,7.7 8.6,7.9 L6.65,6.85 7.1,5.9 C7.4,5.4 7.7,5 8,4.6 L8.5,5.2z M6.9,5.85 L6.4,6.75 4.25,5.6 C4.4,5.15 4.55,4.65 4.95,4.05 L5.7,2.75 C6.45,3.25 7.15,3.85 7.75,4.45 7.5,4.8 7.15,5.25 6.9,5.85z M2.7,0.95 L1.95,2.45 C1.75,3.15 1.55,3.85 1.45,4.45 0.6,4.15 -0.3,3.75 -1,3.3 -0.95,2.5 -0.8,1.6 -0.3,0.65 -0.15,0.35 0,0.15 0.15,-0.1 1,0.1 1.85,0.5 2.7,0.9 L2.7,0.95z M4,5.5 L1.7,4.6 C1.8,3.95 1.9,3.25 2.2,2.5 L2.95,1.05 5.45,2.65 4.7,3.9 C4.4,4.45 4.15,4.95 4,5.5z M3.85,5.75 C3.75,6.25 3.7,6.75 3.7,7.1 3.1,6.9 2.4,6.55 1.7,6.4 1.65,5.95 1.65,5.45 1.7,4.9 L3.85,5.75z M3.8,8.25 L1.85,7.55 1.75,6.7 C2.45,6.9 3.1,7.2 3.65,7.5 L3.8,8.25z M1.55,7.45 C0.9,7.1 0.2,6.85 -0.4,6.4 L-0.4,6.35 C-0.55,6.3 -0.7,6 -0.8,5.7 -0.15,6.05 0.65,6.45 1.4,6.65 L1.55,7.45z M3.95,7.65 C4.6,7.9 5.1,8.25 5.6,8.55 L5.75,8.65 5.65,9.3 4.05,8.35 3.95,7.65z M9.85,8.9 C9.4,9.45 8.9,9.55 8.35,9.5 8.35,9.15 8.5,8.75 8.75,8.3 L9.85,8.9z M9.55,7.15 L9.95,8.6 8.85,8.05 9.3,7.4 9.55,7.15z M5.8,8.35 L5.75,8.3 C5.25,8 4.65,7.6 3.95,7.25 3.95,6.9 4.05,6.4 4.15,5.85 L6.35,7.05 C6.1,7.5 5.9,7.95 5.8,8.35z M6.1,8.45 C6.15,8.15 6.35,7.7 6.55,7.2 L8.45,8.2 C8.3,8.7 8.15,9.15 8.05,9.45 7.7,9.35 7.25,9.1 6.9,8.95 L6.1,8.45z M6.75,9.25 C7.1,9.4 7.6,9.6 8.1,9.8 L8.1,10.25 C7.45,10.2 6.7,9.9 5.95,9.35 L5.95,8.75 6.75,9.25z M1.4,6.35 C0.55,6.1 -0.25,5.65 -0.9,5.3 -1,4.85 -1.1,4.25 -1.05,3.65 -0.25,4.1 0.55,4.45 1.4,4.75 1.3,5.35 1.4,5.85 1.4,6.35z M-0.1,-0.25 C-0.25,0 -0.35,0.2 -0.6,0.6 -0.95,1.45 -1.2,2.4 -1.3,3.15 -1.75,2.9 -2.15,2.6 -2.5,2.25 L-2.65,2.4 C-2.55,1.3 -2.2,0.25 -1.7,-0.55 -1.4,-0.55 -0.8,-0.4 -0.1,-0.25z M-1.2,5.1 L-2.35,4.35 C-2.6,3.8 -2.7,3.2 -2.65,2.55 -2.25,2.9 -1.8,3.25 -1.35,3.5 -1.4,4.1 -1.35,4.65 -1.2,5.1z M-2.1,4.9 L-1.15,5.45 -0.9,6.1 -1.35,5.75 C-1.65,5.5 -1.9,5.3 -2.1,4.9z"/>
      </g>
    </g>
  </g>
</svg>
